X:1
T:Og jeg vil he'e mig en Hjerenskjaer
T:Aug. Söderman (1832-1876)
T:Og jeg vil ha'e mig en hjertenskjær
T:Nr 2 av Tre visor i folkton
T:©PA Aglert Edition may be freely distributed, duplicated, performed and recorded
T:©PA Aglert Edition may be freely distributed, duplicated, performed and recorded
C:Aug. Söderman (1832-1876)
Z:©PA Aglert
Z:Edition may be freely distributed, duplicated, performed and recorded
%%score [ ( 1 2 ) ( 3 4 ) ]
L:1/8
Q:1/4=92
M:2/4
K:G
V:1 treble nm="Soprano"
V:2 treble 
V:3 bass nm="Bass"
V:4 bass 
V:1
"^Allegro moderato" z!p! D | G>!<(!G BA/!<)!B/ | !>!dd A2 |!f! c2 B2 | BA!>(! AA/!>)!G/ | %5
w: 1.Og|jeg vil ha'e mig en|hjer- tens- kjær,|Ja ja,|Hjer- tens- kjær! Men en|
w: 2.Men|jeg vil ha'e mig en|hjer- tens- kjær,|Ja ja,|Hjer- tens- kjær! Som er|
w: 3.Og|han skal væ- re min|hjer- tens- kjær,|Ja ja,|Hjer- tens- kjær! Og jeg|
!p! FG/F/ EF/E/ |!<(! DD/E/ (F/!<)!E/)"^cresc."F/G/ |!f!"^rall.""^rall." A2 c2 |!>(! B3!>)! A | %9
w: lei, el- ler sint, el- ler|sur, el- ler gjæ- * rig og|gam- mel|kar, som|
w: stor, som er stark, som er|kjæk, som er tro- * fast og|vak- ker|ja, som|
w: skal væ- re god i- mod|ham, jeg skal els- * ke ham|e- vig|tro. Og|
!p!"^a tempo""^a tempo" GG/G/ F z/ F/ |"^cresc." AA/A/ G z/ G/ | cc/c/ B!f! (B/c/) | %12
w: drik- ker sig fuld og|fal- ler om- kuld, ham|sva- rer jeg nej! Pak dig|
w: al- tid er mild og|ven- lig og snild, som|els- ker for Gud sin *|
w: klap- pa han kind, og|kvik- ke hans sind, og|ba- ge hans bröd, og *|
 A/B/G/A/ F/ z/ (E/F/) | (D/E/)C/D/ B,/ z/ (B,/C/) | (DD) FF | G2 z!mf! D | G!<(!G/G/ B!<)!A/B/ | %17
w: ba- * re din vei! Pak dig|ba- * re din vei! Pak dig|ba- * re din|vei! Selv|om han en dra- be- lig|
w: e- gen lil- le brud, sin *|e- gen lil- le brud, sin *|e- gen lil- le|brud. Se|saa skal han væ- re, som|
w: ko- * ge hans gröd, og *|ko- * ge hans gröd, og *|ko- * ge hans|gröd, og|saa skal vi le- ve saa|
 !>!dd A z/ A/ |!f! (c2 B2 |!>(! A2) F2!>)! | G4- | G2 z2 |] %22
w: lends- man var, en|lends- *|* man|var.||
w: jeg vil ha'n, som|jeg *|* vil|ha'n.||
w: godt vi to, saa|godt *|* vi|to!||
V:2
 z D | D>D GF/G/ | GG F2 | G2 F2 | EE EE/D/ | CD/C/ B,C/B,/ | A,A,/B,/ C/B,/C/D/ | E2 G2 | F3 F | %9
 EE/E/ D z/ D/ | EE/E/ E z/ E/ | GG/G/ !fermata!G G/E/ | F/D/E/C/ D/ z/ C/A,/ | %13
 B,/G,/A,/F,/ G,/ z/ B,/G,/ | B,B, DD | D2 z D | DD/D/ GF/G/ | GG F z/ F/ | G2 F2 | E2 C2 | B,4- | %21
 B,2 z2 |] %22
V:3
 z!p! D |!<(! B,>B, B,B,/!<)!B,/ | B,B,/C/ D2 |!f! E2 D2 | DC!>(! CC/!>)!B,/ | %5
!p! A,B,/A,/ G,A,/G,/ |!<(! F,F,/G,/ (A,/!<)!G,/)"^cresc."A,/B,/ |!f! C2 E2 |!>(! D3!>)! C!p! | %9
 B,B,/B,/ B, z/ B,/ |"^cresc." CC/C/ B, z/ B,/ | EE/E/ D z | z4 | z2 z!f! (G,/G,/) | G,G, A,C | %15
 B,2 z!mf! D | B,!<(!B,/B,/ B,!<)!B,/B,/ | B,B,/C/ D z/ D/!f! | (E2 D2 |!>(! C2)!>)! A,2 | G,4- | %21
 G,2 z2 |] %22
V:4
 z D | G,>G, E,E,/E,/ | !>!D,D, D,2 | z D,/D,/ D,/D,/D,/D,/ | D,D, D,D,/D,/ | D,D,/D,/ D,D,/D,/ | %6
w: |||ja ja ja ja ja ja|||
w: ||||||
w: ||||||
 D,D,/D,/ D,D,/D,/ | D,2 D,2 | D,3 D, | E,E,/E,/ B,, z/ B,,/ | A,,A,,/A,,/ E, z/ E,/ | %11
w: |||||
w: |||||
w: |||||
 C,C,/C,/ !fermata!G, z | x4 | z2 z G,/E,/ | D,D, D,D, | G,2 z B, | G,G,/G,/ E,E,/E,/ | %17
w: ||||||
w: ||||||
w: ||||||
 !>!D,D, D, z | z D,/D,/ D,/D,/D,/D,/ | D,2 D,2 | [G,,D,]4- | [G,,D,]2 z2 |] %22
w: |Om han en dra- be- lig|lends- man|var.||
w: |Saa skal han væ- re, som|jeg vil|ha'n.||
w: |Saa skal vi le- ve saa|godt vi|to!||

